X:1
T:Title
%%score ( 1 2 ) { 3 | 4 }
L:1/8
Q:1/4=100
M:4/4
K:Ab
V:1 treble nm="Grand Piano, Soprano"
V:2 treble 
V:3 bass nm="Choir Pad, Have You Seen the Star?"
V:4 bass 
V:1
 [CE]>[DF] [CA]2 [CA]2 [Ec][Ec] | [DB][CA][DB][FA] [EG][DF] [CE]2 | %2
w: By~W.~R.~Chambers * * * * *||
 [Ae]>[Af] [Ac]2 [Ac]2 [EB][EA] | [DF]>[CE] [CA][Ec] [=DB][DF] [_DB]2 | %4
w: ||
 [DE]>[DF] [CA]2 [CA]2 [Ec][Ec] | [DB][CA][DB][FA] [EG][DF] [CE]2 | %6
w: ||
 [Ae]>[Af] [Ae]2 [CA]>[DB] [Ec]2 | [DB]>[CA] [DB][DE] [DF][DG] [CA]2 |[M:12/8] z3 e6- e3/2 z/ z | %9
w: |||
 fec z2 E FFF E3 | z3 B6- B3/2 z/ z | z3 e6 z3 | [ce][df][ce] [Ac]6- [Ac]3/2 z/ [EA] | %13
w: ||||
 [FB][FA][DF] [CE]6- [CE]2- [CE]/ z/ | [CE][CA][Ec] [ce]6- [ce]3/2 z/ [Ac] | z3 A3- A6- | %16
w: |||
 A3 z3 z6 |] %17
w: |
V:2
 x8 | x8 | x8 | x8 | x8 | x8 | x8 | x8 |[M:12/8] ABc z3 AAA A2 c | z3 A6- A2- A/ z/ | %10
 cdc z3 EEE E2 [GB] | [AB][Ac][A=d] G2 G AAA B3 | x12 | x12 | x12 | [Bd][Ac][GB] z2 E FFF E3- | %16
 E3 z3 z6 |] %17
V:3
 A,>A, A,2 A,2 A,A, | A,A,F,A, A,A, A,2 | C>D E2 E2 DC | A,>A, A,A, A,A, G,2 | G,>G, A,2 A,2 A,A, | %5
 A,A,F,A, A,A, A,2 | C>D C2 A,>A,[K:bass] A,2 | A,>A, G,G, A,B, A,2 | %8
[M:12/8] z6[K:treble] CCC .C3 | z3 z2 C DDD C3 | z6[K:bass] G,G,G, G,2 B, | B,B,B, B,6 z3 | %12
 z6[K:treble] EEE E2 C | DD[K:bass]A, A,2 A, A,A,A, A,3 | z6[K:treble] EEE E2 E | %15
 EEE C2 C DDD C3- | C3 z3 z6 |] %17
V:4
 A,,>A,, A,,2 A,,2 z2 | z2 D,D, D,D, A,,2 | A,>A, A,2 A,2 A,A, | A,,>A,, A,,A,, B,,B,, E,2 | %4
 E,>E, A,,2 A,,2 z2 | z2 D,D, D,D, A,,2 | A,>A, A,2 z4 | z2 E,E, E,E, A,,2 | %8
[M:12/8] z6 A,A,A, .A,3 | z3 z2 A, D,D,D, A,,3 | z6 B,,B,,B,, B,,2 B,, | %11
 B,,B,,B,, E,2 E, F,F,F, G,3 | z6 A,A,A, A,2 A, | D,D,D, A,,2 A,, A,,C,E, z3 | z6 A,A,A, A,2 A, | %15
 E,E,E, A,,3- A,,6- | A,,3 z3 z6 |] %17

